%
(Header)
(Generated by gcodetools from Inkscape.)
(Using default header. To add your own header create file "header" in the output dir.)

M101 A0 T242.5 B-242.5
M101 A1 T464 B-464
M101 A2 T170 B10
D7 R959.161 L959.161

G92 X0 Y-464
D6 X0 Y-464
G0 F20 A20

(Header end.)
G21 (All units in mm)

(Start cutting path id: path12012)
(Change tool to Cylindrical cutter)

G00 Z90.000000
G00 X9.359380 Y69.808000 F20

G01 Z160.000000 F60.0(Penetrate)
G01 X7.478100 Y69.274000 Z160.000000 F10.000000
G01 X5.795750 Y68.261000 Z160.000000
G01 X4.279980 Y67.011000 Z160.000000
G01 X2.889410 Y65.622000 Z160.000000
G01 X1.595130 Y64.142000 Z160.000000
G01 X0.378935 Y62.597000 Z160.000000
G01 X-0.771269 Y61.004000 Z160.000000
G01 X-1.865330 Y59.371000 Z160.000000
G01 X-2.909650 Y57.704000 Z160.000000
G01 X-3.908850 Y56.010000 Z160.000000
G01 X-4.865880 Y54.293000 Z160.000000
G01 X-5.783310 Y52.555000 Z160.000000
G01 X-6.664160 Y50.797000 Z160.000000
G01 X-7.509110 Y49.023000 Z160.000000
G01 X-8.320170 Y47.231000 Z160.000000
G01 X-9.097180 Y45.425000 Z160.000000
G01 X-9.841410 Y43.604000 Z160.000000
G01 X-10.552600 Y41.771000 Z160.000000
G01 X-11.230400 Y39.925000 Z160.000000
G01 X-11.875000 Y38.068000 Z160.000000
G01 X-12.448300 Y36.317000 Z160.000000
G01 X-12.990500 Y34.555000 Z160.000000
G01 X-13.500300 Y32.783000 Z160.000000
G01 X-13.975400 Y31.003000 Z160.000000
G01 X-14.414200 Y29.213000 Z160.000000
G01 X-14.813800 Y27.414000 Z160.000000
G01 X-15.170200 Y25.606000 Z160.000000
G01 X-15.479000 Y23.790000 Z160.000000
G01 X-15.734000 Y21.965000 Z160.000000
G01 X-15.926800 Y20.132000 Z160.000000
G01 X-16.045800 Y18.293000 Z160.000000
G01 X-16.074200 Y16.449000 Z160.000000
G01 X-15.990400 Y14.654000 Z160.000000
G01 X-15.757800 Y12.873000 Z160.000000
G01 X-15.310100 Y11.135000 Z160.000000
G01 X-14.523900 Y9.526000 Z160.000000
G01 X-13.217600 Y8.317000 Z160.000000
G01 X-11.476600 Y7.980000 Z160.000000
G01 X-9.595300 Y8.514000 Z160.000000
G01 X-7.912940 Y9.527000 Z160.000000
G01 X-6.397170 Y10.778000 Z160.000000
G01 X-5.006600 Y12.167000 Z160.000000
G01 X-3.712320 Y13.647000 Z160.000000
G01 X-2.495450 Y15.192000 Z160.000000
G01 X-1.344370 Y16.787000 Z160.000000
G01 X-0.250847 Y18.419000 Z160.000000
G01 X0.792955 Y20.085000 Z160.000000
G01 X1.791660 Y21.778000 Z160.000000
G01 X2.748690 Y23.495000 Z160.000000
G01 X3.666130 Y25.233000 Z160.000000
G01 X4.546980 Y26.991000 Z160.000000
G01 X5.391920 Y28.766000 Z160.000000
G01 X6.202990 Y30.557000 Z160.000000
G01 X6.979990 Y32.363000 Z160.000000
G01 X7.724210 Y34.184000 Z160.000000
G01 X8.435370 Y36.018000 Z160.000000
G01 X9.113210 Y37.863000 Z160.000000
G01 X9.757810 Y39.720000 Z160.000000
G01 X10.331100 Y41.471000 Z160.000000
G01 X10.873300 Y43.233000 Z160.000000
G01 X11.383100 Y45.005000 Z160.000000
G01 X11.858200 Y46.785000 Z160.000000
G01 X12.297000 Y48.575000 Z160.000000
G01 X12.696600 Y50.374000 Z160.000000
G01 X13.053000 Y52.182000 Z160.000000
G01 X13.361800 Y53.998000 Z160.000000
G01 X13.616800 Y55.823000 Z160.000000
G01 X13.809600 Y57.656000 Z160.000000
G01 X13.928600 Y59.495000 Z160.000000
G01 X13.957100 Y61.339000 Z160.000000
G01 X13.873400 Y63.133000 Z160.000000
G01 X13.640800 Y64.915000 Z160.000000
G01 X13.192900 Y66.653000 Z160.000000
G01 X12.406700 Y68.263000 Z160.000000
G01 X11.100400 Y69.472000 Z160.000000
G01 X9.359370 Y69.808000 Z160.000000
G01 X9.359380 Y69.808000 Z160.000000
G00 Z90.000000

(End cutting path id: path12012)


(Footer)
G00 X0.0000 Y0.0000
(Using default footer. To add your own footer create file "footer" in the output dir.)
(end)
%